X:1
T:G minor Jacob French, 1802
T:Isaac Watts, 1719 (Psalm 116, Part 2)  86. 86. (C. M.)
T:Gratitude
T:Transcribed from Harmony of Harmony, 1802
%%score [ 1 2 3 4 ]
L:1/8
Q:1/4=120
M:4/4
K:Bb
V:1 treble nm="Treble" snm="Tr."
V:2 treble nm="Counter" snm="C."
V:3 treble-8 nm="Tenor" snm="T."
V:4 bass nm="Bass" snm="B."
V:1
 G4 | B2 Bc d2 dc | B2 A2 G2 A2 | B2 c2 d2 d2 | d6 z2 | z8 | z4 z2 A2 | B2 G2 F2 D2 | d2 dc B2 A2 | %9
w: 1.~What|shall I * ren- der *|to my God For|all his kind- ness|shown?||My|feet shall vi- sit|thine a- * bode, My|
w: 2.~How|much is * mer- cy *|thy de- light, Thou|ev- er- bles- sed|God!||How|dear thy ser- vants|in thy * sight! How|
 G>A BG A2 A2 | A6 c2 | (dcBA G2) c2 | (B2 d2) (A2 ^F2) | G8 | z4 G4 | d2 dc B2 A2 | B2 Bc d2 c2 | %17
w: songs * ad- * dress thy|throne; My|songs~ _ _ _ _ ad-|dress~ _ thy *|throne.|A-|mong the * saints that|fill thine * house My|
w: pre- * cious * is their|blood! How|pre- * * * * cious|is~ _ their *|blood!|How|hap- py * all thy|ser- vants * are! How|
 fe dc B2 A2 | A6 A2 | B2 B2 B2 AB | c2 c2 c2 BA | B2 B2 AB c2 | d6 Bc | d2 B2 d2 B2 | %24
w: of- * ferings * shall be|paid; There|shall my zeal per- *|form the vows My *|soul in an- * guish|made. There *|shall my zeal per-|
w: great * thy * grace to|me! My|life, which thou hast *|made thy care, Lord, *|I de- vote * to|thee. My *|life, which thou hast|
 cB AG FG AB | cB AG FG A2 | G8 |] %27
w: form * the * vows * my *|soul * in * an- * guish|made.|
w: made * thy * care, * Lord, *|I * de- * vote * to|thee.|
V:2
 D4 | G2 A2 G2 FE | D2 D2 D2 F2 | F2 F2 G2 G2 | ^F6 z2 | z8 | z8 | z4 z2 F2 | G2 A2 G2 FE | %9
w: |||||||My|feet shall vi- sit *|
w: |||||||How|dear thy ser- vants *|
 D2 G2 F2 F2 | F2 F2 F2 E2 | D6 E2 | DE FE D2 D2 | D8 | z4 D4 | G2 G2 G2 FE | D2 F2 F2 F2 | %17
w: thine a- bode, My|songs ad- dress thy|throne, My|songs * ad- * dress thy|throne.||||
w: in thy sight! How|pre- cious is their|blood! How|pre- * cious * is their|blood!||||
 FG A2 G2 F2 | F6 FE | D2 D2 D2 F2 | E2 E2 E2 D2 | G2 G2 F2 F2 | F6 FE | D2 F2 D2 F2 | %24
w: |||||||
w: |||||||
 GF ED C2 F2 | E2 E2 D2 D2 | D8 |] %27
w: |||
w: |||
V:3
 G4 | d2 dc B2 A2 | G2 A2 B2 c2 | d2 e2 dc B2 | A6 z2 | z4 z2 G2 | D2 DE F2 F2 | G2 B2 A2 A2 | %8
w: 1.~What|shall I * ren- der|to my God For|all his kind- * ness|shown?|My|feet shall * vi- sit|thine a- bode, My|
w: 2.~How|much is * mer- cy|thy de- light, Thou|ev- er- bles- * sed|God!|How|dear thy * ser- vants|in thy sight! How|
 (B2 A2 B2) c2 | d4 ^c4 | d6 g2 | (fedc B2) g2 | B4 (AG A2) | G8 | z4 G4 | B2 Bc d2 de | %16
w: songs~ _ _ ad-|dress thy|throne, My|songs~ _ _ _ _ ad-|dress~~ thy * *|throne.|A-|mong the * saints that *|
w: pre- * * cious|is their|blood! How|pre- * * * * cious|is~ their * *|blood.|How|hap- py * all thy *|
 f2 d2 B2 c2 | de f2 ed c2 | d6 de | f2 f2 f2 d2 | g2 g2 g2 f2 | e2 d2 cB A2 | B6 de | %23
w: fill thine house My|of- * ferings shall * be|paid; There *|shall my zeal per-|form the vows My|soul in an- * guish|made. There *|
w: ser- vants are! How|great * thy grace * to|me! My *|life, which thou hast|made thy care, Lord,|I de- vote * to|thee. My *|
 f2 d2 B2 d2 | ed cB A2 d2 | G2 cB AG ^F2 | G8 |] %27
w: shall my zeal per-|form * the * vows my|soul in * an- * guish|made.|
w: life, which thou hast|made * thy * care, Lord,|I de- * vote * to|thee.|
V:4
 G,4 | G,2 ^F,2 G,2 D,2 | G,,2 D,2 B,2 F,2 | B,2 A,2 B,A, G,2 | D,6 D,2 | G,,2 G,,A,, B,,2 C,2 | %6
w: ||||* 1.~My|feet shall * vi- sit|
w: ||||* 2.~How|dear thy * ser- vants|
 D,2 D,C, B,,2 A,,2 | G,,2 G,,2 D,2 D,2 | (G,2 F,2 G,2) A,2 | B,2 G,>B, A,G, F,E, | D,6 C,2 | %11
w: thine a- * bode, My|songs ad- dress thy|throne,~ _ _ My|songs ad- * dress * thy *|throne; My|
w: in thy * sight, How|pre- cious is thy|blood!~ _ _ How|pre- cious * is * their *|blood! How|
 B,,6 C,2 | D,C,B,,C, D,4 | G,,8 | z4 G,4 | G,2 G,2 G,2 D,C, | B,,2 B,,2 B,,2 F,E, | %17
w: songs~ ad-|dress~ _ _ _ thy|throne.||||
w: pre- cious|is~ _ _ _ their|blood!||||
 D,2 D,2 G,2 A,2 | D,6 D,C, | B,,2 B,,2 B,,2 D,2 | C,2 C,2 C,2 D,2 | E,2 E,2 F,2 F,2 | B,,6 B,,2 | %23
w: ||||||
w: ||||||
 B,,2 B,,2 B,,2 B,,2 | C,2 C,2 F,2 D,2 | %25
w: ||
w: ||
"^3. Now I am thine, for ever thine,\nNor shall my purpose move\nThy hand hath loosed my bonds of pain,\nAnd bound me with thy love.\n   \nHere in thy courts I leave my vow,\nAnd thy rich grace record;\nWitness, ye saints, who hear me now,\nIf I forsake the Lord." E,2 C,2 D,2 D,2 | %26
w: |
w: |
 G,,8 |] %27
w: |
w: |

